assets/02_eyes/Eye 9.svg

<svg width="400" height="180" viewBox="0 0 400 180" fill="none" xmlns="http://www.w3.org/2000/svg">
<g clip-path="url(#clip0_70_862)">
<path d="M111 45C111 94.1548 150.845 134 200 134C249.155 134 289 94.1548 289 45H111Z" fill="white"/>
<path d="M200 45C224.577 45 244.5 64.9233 244.5 89.5C244.5 114.077 224.577 134 200 134C175.423 134 155.5 114.077 155.5 89.5C155.5 64.9233 175.423 45 200 45Z" fill="#FFCF4B"/>
<path d="M225.384 62.1504C225.384 62.1504 199.235 86.8106 175.154 62.709C199.255 86.8106 174.595 112.94 174.595 112.94C196.69 90.8447 223.191 110.726 223.191 110.726C223.191 110.726 203.31 84.2245 225.405 62.1297L225.384 62.1504Z" fill="white"/>
</g>
<defs>
<clipPath id="clip0_70_862">
<rect width="178" height="89" fill="white" transform="matrix(1 0 0 -1 111 134)"/>
</clipPath>
</defs>
</svg>

<svg xmlns="http://www.w3.org/2000/svg" width="400" height="180" fill="none" viewBox="0 0 400 180"><g clip-path="url(#a)"><path fill="#fff" d="M111 45c0 49.155 39.845 89 89 89s89-39.845 89-89z"/><path fill="#ffcf4b" d="M200 45c24.577 0 44.5 19.923 44.5 44.5S224.577 134 200 134s-44.5-19.923-44.5-44.5S175.423 45 200 45"/><path fill="#fff" d="M225.384 62.15s-26.149 24.66-50.23.559c24.101 24.102-.559 50.231-.559 50.231 22.095-22.095 48.596-2.214 48.596-2.214s-19.881-26.501 2.214-48.596z"/></g><defs><clipPath id="a"><path fill="#fff" d="M111 134h178V45H111z"/></clipPath></defs></svg>
